X:1
T:Saint John Passion
T:Die JӮden aber, dieweil es der RӮsttag war
T: BWV 245 NBA #36 Die JӮden aber, dieweil es der RӮsttag war
T: Recitativo secco for Evangelista More at http://bach.ejmaurath.com Uploaded with Musescore 2
T:Johann Sebastian Bach (1685--1750) 
T:Saint John, Heilige Schrift, Martin Luther 
T:Sequenced by Edward J. Maurath
C:Johann Sebastian Bach
Z:Saint John nach heilige Schrift
Z:Sequenced by Edward J. Maurath
%%score 1 { 2 | 3 } 4
L:1/8
Q:1/4=60
M:4/4
K:C
V:1 treble transpose=-12 nm="Tenor" snm="TEN"
V:2 treble nm="Cembalo\nContinuo" snm="CEM"
V:3 bass 
V:4 bass nm="Violoncello\nContinuo" snm="VCO\nB.C."
V:1
"^60" z"^Evangelista" ffd BB z d | dF/G/ _AG G2 z G | d_eff fg_af | dd/_e/ fd ee z G/G/ | %4
 cc/c/ cd _ed/c/ f2 | _BFFG _AA z A | ff dc/_B/ gg z _e/B/ | c_E_AG FE z2 z2 | %8
 z _B _ee/f/ gc/c/ z e | AA/_B/ cc/F/ =BB z d/G/ | ff_ed ec ^FF/d/ | _B2 z d/B/ GG/G/ AB | %12
 cF z A/c/ ff z c | AG/F/ _E/D/E D2 _BB/c/ | ddd_B .e2 gg/e/ | ^cc/d/ ee/A/ aa/f/ df | %16
 BB/c/ dG _e2 z d | dAA_B cc _ee/d/ | ._B>d GA/B/ c/F/F z F | cc/d/ ee z g/e/ cd/e/ | %20
 .f2 z F/G/ AA/_B/ .c>c | fcAc dd z/ G/A/_B/ | _BF z2 z2 f z | z _B/B/ cd ^d_e z e | %24
 _e_B G/_E/_d/c/ ^A_A z E | _AAcA f^GG_E z2 | z _E _AA/_B/ cc/_d/ _ed/c/ | f2 z/ c/c/c/ _gg z f | %28
 _d_B _G/^D/A/B/ BF z2 | z8 |] %30
V:2
 [F,^G,B,]8 | [F,_A,_B,D]4 [F,G,D]4 | [F,G,D]4 [F,^G,B,D]4 | [F,_A,D]4 [G,_E]4 | [G,_E]6 [F,_B,]2 | %5
 F,4 [F,_A,]4 | [F,_A,]4 G,2 [G,D]2 | [C_E]4 z2 z2 [_B,E][F,_A,B,D] | [G,_B,_E]4 [G,CE]4 | %9
 [F,A,C]4 [B,D]2 [G,D]2 | [F,D]4 [G,^D]2 [^F,A,C=D]2 | [G,_B,]8 | [F,C]8 | %13
 [F,C]2 [A,_E]2 [F,_B,D]4 | [F,_B,D]4 [E,B,C]4 | [E,A,^C]4 [A,D]4 | [G,B,D]4 [A,C^D]4 | %17
 [^F,A,D]4 [F,A,C_E]4 | [_B,D]2 [G,_E]2 [F,C]4 | [F,C]2 [_B,CE]6 | F,8 | C4 D2 [G,_B,]2 | %22
 z2 [_B,D_B][C_EFA] [DFB]4 | [F,_B,D]4 [B,_E]4 | [G,_B,_E]2 _D2 [F,_A,B,=D]4 | %25
 [_A,C]4 [F,A,_B,D]2 z2 [A,C^D^G][B,_D_E=G] | [C_E_A]8 | [F,C]4 [^F,C^D]4 | %28
 [^F,^C]2 [F,A,=C]2 z2 [C_E_B][A,CEA] | [_B,_DF^A]8 |] %30
V:3
 D,8 | D,4 B,,4 | B,,8 | B,,4 C,4 | C,6 D,2 | D,8 | D,4 _E,2 G,,2 | _A,,4 z2 z2 _B,,2 | _E,,8 | %9
 _E,,4 D,,2 B,,2 | B,,4 C,4 | G,,8 | A,,8 | A,,4 ^G,,4 | ^G,,4 =G,,4 | G,,4 F,,4 | F,,4 ^F,,4 | %17
 ^F,,8 | G,,4 A,,4 | A,,2 G,,6 | A,,8 | A,,4 _B,,2 _E,,2 | z2 F,,2 _B,,4- | B,,4 G,,4- | %24
 G,,4 C,4- | C,4 D,2 z2 ^D,2 | ^G,,8 | A,,8 | _B,,2 _E,2 z2 F,F, | ^A,,8 |] %30
V:4
 D,8 | D,4 B,,4 | B,,8 | B,,4 C,4 | C,6 D,2 | D,8 | D,4 _E,2 G,,2 | _A,,4 z3 D,3 | _E,,8 | %9
 _E,,4 D,,2 B,,2 | B,,4 C,4 | G,,8 | A,,8 | A,,4 ^G,,4 | ^G,,4 =G,,4 | G,,4 F,,4 | F,,4 ^F,,4 | %17
 ^F,,8 | G,,4 A,,4 | A,,2 G,,6 | A,,8 | A,,4 _B,,2 _E,,2 | z2 F,,2 _B,,4- | B,,4 G,,4- | %24
 G,,4 C,4- | C,4 D,2 z2 z ^D, | ^G,,8 | A,,8 | _B,,2 _E,2 z2 F,F, | ^A,,8 |] %30

